X: 1
T: Ballyhaunis
M: 4/4
L: 1/8
R: reel
K: Amin
e>d | cBcd cBA^G | A^GAB c>dcB | ABAG EDE^G | A4 {c/B/}A2 :|
A2 | ABcd e2 dc | dcde g2 e^d | e2a2 age^g | a4 a2 e>d |
c>Bcd cBA^G | A^GAB cdcB | GBAG EDE^G | A4 {c/B/}A2 ||
